X: 1751
T: the Wily Old Bachelor   #2
R: hornpipe, reel
%S: s:2 b:12(6+6
B: O'Neill's 1850 #1751
Z: Bob Safranek, rjs@gsp.org
Z: Compacted via repeats and multiple endings [JC]
M: C|
L: 1/8
K: G
(DC) |: B,DGA BGDB, | CEAB cAFD |[1,3 B,DGA BGc>B | (3ABG (3FGE (3DEC (3B,CA, :|[2,4 B,DGB ADEF | G2 B2 G2 :|
(ga) |: bgeg dgBg |[1 dgBg dgBg :|[2 fgab a2(ga) :|[3 cBAB cdef | gdBG EcAF | G2 B2 G2 :|
